icon-themes/karasa_jaga_svg/sd/res/orgchart.svg

<svg height="71" viewBox="0 0 23.547916 18.785417" width="89" xmlns="http://www.w3.org/2000/svg" xmlns:xlink="http://www.w3.org/1999/xlink"><linearGradient id="a" gradientTransform="matrix(.06528313 0 0 .10490867 -7.335117 -27.335817)" gradientUnits="userSpaceOnUse" x1="399.77466" x2="399.77466" xlink:href="#e" y1="1164.6696" y2="549.06134"/><linearGradient id="b" gradientTransform="matrix(.58560312 0 0 .78080421 -8.201271 12.466961)" gradientUnits="userSpaceOnUse" x1="41.896336" x2="112" y1="94.597992" y2="27.999998"><stop offset="0" stop-color="#fff"/><stop offset=".47368419" stop-color="#fff"/><stop offset=".5892781" stop-color="#f1f1f1"/><stop offset=".80219781" stop-color="#eaeaea"/><stop offset="1" stop-color="#dfdfdf"/></linearGradient><linearGradient id="c" gradientTransform="matrix(.61440079 .25408854 -1.1795381 1.6894859 -7.583978 -26.265766)" gradientUnits="userSpaceOnUse" x1="139.60036" x2="127.0583" y1="-41.491417" y2="34.319145"><stop offset="0" stop-color="#fff"/><stop offset="1" stop-color="#fff" stop-opacity="0"/></linearGradient><linearGradient id="d" gradientUnits="userSpaceOnUse" x1="27" x2="62" xlink:href="#e" y1="35.5" y2="35.5"/><linearGradient id="e"><stop offset="0" stop-color="#b4b4b6"/><stop offset=".5" stop-color="#9c9ca1"/><stop offset="1" stop-color="#cdcdd1"/></linearGradient><filter id="f" color-interpolation-filters="sRGB" height="1.055826" width="1.042098" x="-.021049" y="-.027913"><feGaussianBlur stdDeviation=".14155209"/></filter><filter id="g" color-interpolation-filters="sRGB" height="1.027913" width="1.021049" x="-.010525" y="-.013957"><feGaussianBlur stdDeviation=".070776043"/></filter><linearGradient id="h" gradientUnits="userSpaceOnUse" x1="11.641667" x2="11.641667" y1="13.758326" y2="5.291656"><stop offset="0" stop-color="#e8e8e8"/><stop offset="1" stop-color="#fafafa"/></linearGradient><path d="m.79374996 283.77082h21.00707804v15.73713h-21.00707804z" fill="#050505" filter="url(#f)" opacity=".41" transform="matrix(1.0327868 0 0 1.0386589 .238559 -293.35951)"/><path d="m1.3229167 1.5875h21.1666663v15.875h-21.1666663z" filter="url(#f)" opacity=".49"/><path d="m1.3229167 1.5875h21.1666663v15.875h-21.1666663z" filter="url(#g)" opacity=".77"/><path d="m1.3229166 1.5875h21.1666664v15.875h-21.1666664z" fill="#fff"/><path d="m1.5874995 1.85209h20.6375005v15.34582h-20.6375005z" fill="url(#h)"/><path d="m2.6458333 2.9104166v13.2291664h18.5208327v-13.2291664zm.2645833.2645834h17.9916664v12.7h-17.9916664z" fill="#838383" opacity=".75" stroke-width=".264583"/><g transform="matrix(.06614583 0 0 .06614583 9.789584 2.116667)"><rect fill="url(#a)" height="56" rx="1.43413" ry="1.390003" width="108.00001" x="-24.000004" y="28"/><g fill-rule="evenodd"><rect fill="url(#b)" height="48" rx=".878405" width="100.00001" x="-20.000004" y="32"/><path d="m70.000002 31.999999c-16.560559 12.155852-41.422788 21.063041-58.222658 38.675782l28.222655 9.32422c11.461283-15.08736 28.243028-22.08573 40.000003-34.000001v-12.587891c0-.486636-.393099-.850506-.878906-.878906z" fill="url(#c)"/></g></g><g transform="matrix(.06614583 0 0 .06614583 5.291667 9.260417)"><rect fill="url(#a)" height="56" rx="1.43413" ry="1.390003" width="108.00001" x="-24.000004" y="28"/><g fill-rule="evenodd"><rect fill="url(#b)" height="48" rx=".878405" width="100.00001" x="-20.000004" y="32"/><path d="m70.000002 31.999999c-16.560559 12.155852-41.422788 21.063041-58.222658 38.675782l28.222655 9.32422c11.461283-15.08736 28.243028-22.08573 40.000003-34.000001v-12.587891c0-.486636-.393099-.850506-.878906-.878906z" fill="url(#c)"/></g></g><g transform="matrix(.06614583 0 0 .06614583 14.2875 9.260417)"><rect fill="url(#a)" height="56" rx="1.43413" ry="1.390003" width="108.00001" x="-24.000004" y="28"/><g fill-rule="evenodd"><rect fill="url(#b)" height="48" rx=".878405" width="100.00001" x="-20.000004" y="32"/><path d="m70.000002 31.999999c-16.560559 12.155852-41.422788 21.063041-58.222658 38.675782l28.222655 9.32422c11.461283-15.08736 28.243028-22.08573 40.000003-34.000001v-12.587891c0-.486636-.393099-.850506-.878906-.878906z" fill="url(#c)"/></g></g><path d="m44 29v6h-16-1v7h1v-6h33v6h1v-6-1h-1-16v-6z" fill="url(#d)" transform="scale(.26458333)"/></svg>

<?xml version="1.0" encoding="UTF-8" standalone="no"?>
<svg
   xmlns:dc="http://purl.org/dc/elements/1.1/"
   xmlns:cc="http://creativecommons.org/ns#"
   xmlns:rdf="http://www.w3.org/1999/02/22-rdf-syntax-ns#"
   xmlns:svg="http://www.w3.org/2000/svg"
   xmlns="http://www.w3.org/2000/svg"
   xmlns:xlink="http://www.w3.org/1999/xlink"
   xmlns:sodipodi="http://sodipodi.sourceforge.net/DTD/sodipodi-0.dtd"
   xmlns:inkscape="http://www.inkscape.org/namespaces/inkscape"
   height="71"
   viewBox="0 0 23.547916 18.785417"
   width="89"
   version="1.1"
   id="svg95"
   sodipodi:docname="orgchart.svg"
   inkscape:version="0.92.3 (2405546, 2018-03-11)"
   inkscape:export-filename="/home/rizmut/Dokumen/Rizmut/Github/libreoffice-style-karasa-jaga/build/next/sd/res/orgchart.png"
   inkscape:export-xdpi="96"
   inkscape:export-ydpi="96">
  <metadata
     id="metadata101">
    <rdf:RDF>
      <cc:Work
         rdf:about="">
        <dc:format>image/svg+xml</dc:format>
        <dc:type
           rdf:resource="http://purl.org/dc/dcmitype/StillImage" />
        <dc:title></dc:title>
      </cc:Work>
    </rdf:RDF>
  </metadata>
  <defs
     id="defs99">
    <linearGradient
       inkscape:collect="always"
       xlink:href="#c"
       id="linearGradient931"
       gradientUnits="userSpaceOnUse"
       gradientTransform="matrix(0.06528313,0,0,0.10490867,-7.335117,-27.335817)"
       x1="399.77466"
       y1="1164.6696"
       x2="399.77466"
       y2="549.06134" />
    <linearGradient
       inkscape:collect="always"
       xlink:href="#h"
       id="linearGradient933"
       gradientUnits="userSpaceOnUse"
       gradientTransform="matrix(0.58560312,0,0,0.78080421,-8.201271,12.466961)"
       x1="41.896336"
       y1="94.597992"
       x2="112"
       y2="27.999998" />
    <linearGradient
       inkscape:collect="always"
       xlink:href="#a"
       id="linearGradient935"
       gradientUnits="userSpaceOnUse"
       gradientTransform="matrix(0.61440079,0.25408854,-1.1795381,1.6894859,-7.583978,-26.265766)"
       x1="139.60036"
       y1="-41.491417"
       x2="127.0583"
       y2="34.319145" />
    <linearGradient
       inkscape:collect="always"
       xlink:href="#c"
       id="linearGradient947"
       gradientUnits="userSpaceOnUse"
       gradientTransform="matrix(0.06528313,0,0,0.10490867,-7.335117,-27.335817)"
       x1="399.77466"
       y1="1164.6696"
       x2="399.77466"
       y2="549.06134" />
    <linearGradient
       inkscape:collect="always"
       xlink:href="#h"
       id="linearGradient949"
       gradientUnits="userSpaceOnUse"
       gradientTransform="matrix(0.58560312,0,0,0.78080421,-8.201271,12.466961)"
       x1="41.896336"
       y1="94.597992"
       x2="112"
       y2="27.999998" />
    <linearGradient
       inkscape:collect="always"
       xlink:href="#a"
       id="linearGradient951"
       gradientUnits="userSpaceOnUse"
       gradientTransform="matrix(0.61440079,0.25408854,-1.1795381,1.6894859,-7.583978,-26.265766)"
       x1="139.60036"
       y1="-41.491417"
       x2="127.0583"
       y2="34.319145" />
    <linearGradient
       inkscape:collect="always"
       xlink:href="#c"
       id="linearGradient968"
       x1="27"
       y1="35.5"
       x2="62"
       y2="35.5"
       gradientUnits="userSpaceOnUse" />
  </defs>
  <sodipodi:namedview
     pagecolor="#ffffff"
     bordercolor="#666666"
     borderopacity="1"
     objecttolerance="10"
     gridtolerance="10"
     guidetolerance="10"
     inkscape:pageopacity="0"
     inkscape:pageshadow="2"
     inkscape:window-width="1366"
     inkscape:window-height="714"
     id="namedview97"
     showgrid="true"
     inkscape:zoom="6.6478873"
     inkscape:cx="43.298563"
     inkscape:cy="29.001638"
     inkscape:window-x="0"
     inkscape:window-y="28"
     inkscape:window-maximized="1"
     inkscape:current-layer="svg95">
    <inkscape:grid
       type="xygrid"
       id="grid919" />
  </sodipodi:namedview>
  <linearGradient
     id="a">
    <stop
       offset="0"
       stop-color="#fff"
       id="stop2" />
    <stop
       offset="1"
       stop-color="#fff"
       stop-opacity="0"
       id="stop4" />
  </linearGradient>
  <linearGradient
     id="b"
     gradientUnits="userSpaceOnUse"
     x1="28.747018"
     x2="137.553997"
     xlink:href="#c"
     y1="45.780018"
     y2="45.780018" />
  <linearGradient
     id="c">
    <stop
       offset="0"
       stop-color="#b4b4b6"
       id="stop8" />
    <stop
       offset=".5"
       stop-color="#9c9ca1"
       id="stop10" />
    <stop
       offset="1"
       stop-color="#cdcdd1"
       id="stop12" />
  </linearGradient>
  <linearGradient
     id="d"
     gradientTransform="matrix(1.1956999 0 0 1.1973969 -16.43879 -8.588186)"
     gradientUnits="userSpaceOnUse"
     x1="55.459156"
     x2="108.46357"
     y1="68.472946"
     y2="15.468533">
    <stop
       offset="0"
       stop-color="#fcfcfc"
       id="stop15" />
    <stop
       offset=".38461539"
       stop-color="#f8f8f8"
       id="stop17" />
    <stop
       offset=".61538464"
       stop-color="#f0efef"
       id="stop19" />
    <stop
       offset=".76923078"
       stop-color="#e3e1e1"
       id="stop21" />
    <stop
       offset="1"
       stop-color="#cecbcb"
       id="stop23" />
  </linearGradient>
  <linearGradient
     id="e"
     gradientTransform="matrix(.84438138 .26717312 -1.572669 1.9194691 10.609423 -44.556816)"
     gradientUnits="userSpaceOnUse"
     x1="139.60036"
     x2="143.37129"
     xlink:href="#a"
     y1="-41.491417"
     y2="33.96748" />
  <linearGradient
     id="f"
     gradientTransform="matrix(0.06528313,0,0,0.10490867,-7.335117,-27.335817)"
     gradientUnits="userSpaceOnUse"
     x1="399.77466"
     x2="399.77466"
     xlink:href="#c"
     y1="1164.6696"
     y2="549.06134" />
  <linearGradient
     id="g"
     gradientTransform="matrix(0.58560312,0,0,0.78080421,-8.201271,12.466961)"
     gradientUnits="userSpaceOnUse"
     x1="41.896336"
     x2="112"
     xlink:href="#h"
     y1="94.597992"
     y2="27.999998" />
  <linearGradient
     id="h">
    <stop
       offset="0"
       stop-color="#fff"
       id="stop29" />
    <stop
       offset=".47368419"
       stop-color="#fff"
       id="stop31" />
    <stop
       offset=".5892781"
       stop-color="#f1f1f1"
       id="stop33" />
    <stop
       offset=".80219781"
       stop-color="#eaeaea"
       id="stop35" />
    <stop
       offset="1"
       stop-color="#dfdfdf"
       id="stop37" />
  </linearGradient>
  <linearGradient
     id="i"
     gradientTransform="matrix(0.61440079,0.25408854,-1.1795381,1.6894859,-7.583978,-26.265766)"
     gradientUnits="userSpaceOnUse"
     x1="139.60036"
     x2="127.0583"
     xlink:href="#a"
     y1="-41.491417"
     y2="34.319145" />
  <linearGradient
     id="j"
     gradientUnits="userSpaceOnUse"
     x1="85.717094"
     x2="-44.73362"
     xlink:href="#c"
     y1="92.189766"
     y2="-1.201532" />
  <linearGradient
     id="k"
     gradientUnits="userSpaceOnUse"
     x1="61.729935"
     x2="-44.73362"
     xlink:href="#h"
     y1="72.606026"
     y2="-1.201532" />
  <linearGradient
     id="l"
     gradientTransform="matrix(0 -.55115833 -1.4341354 .57275922 135.50139 130.03103)"
     gradientUnits="userSpaceOnUse"
     x1="110.45749"
     x2="63.741646"
     xlink:href="#a"
     y1="-4.576576"
     y2="41.850632" />
  <filter
     id="m"
     color-interpolation-filters="sRGB"
     height="1.055826"
     width="1.042098"
     x="-.021049"
     y="-.027913">
    <feGaussianBlur
       stdDeviation=".14155209"
       id="feGaussianBlur44" />
  </filter>
  <filter
     id="n"
     color-interpolation-filters="sRGB"
     height="1.027913"
     width="1.021049"
     x="-.010525"
     y="-.013957">
    <feGaussianBlur
       stdDeviation=".070776043"
       id="feGaussianBlur47" />
  </filter>
  <linearGradient
     id="o"
     gradientUnits="userSpaceOnUse"
     x1="11.641667"
     x2="11.641667"
     y1="13.758326"
     y2="5.291656">
    <stop
       offset="0"
       stop-color="#e8e8e8"
       id="stop50" />
    <stop
       offset="1"
       stop-color="#fafafa"
       id="stop52" />
  </linearGradient>
  <path
     d="m.79374996 283.77082h21.00707804v15.73713h-21.00707804z"
     fill="#050505"
     filter="url(#m)"
     opacity=".41"
     transform="matrix(1.0327868 0 0 1.0386589 .238559 -293.35951)"
     id="path55" />
  <path
     d="m1.3229167 1.5875h21.1666663v15.875h-21.1666663z"
     filter="url(#m)"
     opacity=".49"
     id="path57" />
  <path
     d="m1.3229167 1.5875h21.1666663v15.875h-21.1666663z"
     filter="url(#n)"
     opacity=".77"
     id="path59" />
  <path
     d="m1.3229166 1.5875h21.1666664v15.875h-21.1666664z"
     fill="#fff"
     id="path61" />
  <path
     d="m1.5874995 1.85209h20.6375005v15.34582h-20.6375005z"
     fill="url(#o)"
     id="path63" />
  <path
     d="m2.6458333 2.9104166v13.2291664h18.5208327v-13.2291664zm.2645833.2645834h17.9916664v12.7h-17.9916664z"
     fill="#838383"
     opacity=".75"
     stroke-width=".264583"
     id="path65" />
  <g
     transform="matrix(0.06614583,0,0,0.06614583,9.7895835,2.1166668)"
     id="g85">
    <rect
       height="56"
       rx="1.43413"
       ry="1.390003"
       width="108.00001"
       x="-24.000004"
       y="28"
       id="rect77"
       style="fill:url(#f)" />
    <g
       id="g83"
       style="fill-rule:evenodd">
      <rect
         height="48"
         rx="0.87840497"
         width="100.00001"
         x="-20.000004"
         y="32"
         id="rect79"
         style="fill:url(#g)" />
      <path
         d="M 70.000002,31.999999 C 53.439443,44.155851 28.577214,53.06304 11.777344,70.675781 l 28.222655,9.32422 C 51.461282,64.912641 68.243027,57.914271 80.000002,46 V 33.412109 c 0,-0.486636 -0.393099,-0.850506 -0.878906,-0.878906 z"
         id="path81"
         style="fill:url(#i)"
         inkscape:connector-curvature="0"
         sodipodi:nodetypes="ccccscc" />
    </g>
  </g>
  <g
     id="g929"
     transform="matrix(0.06614583,0,0,0.06614583,5.2916669,9.2604167)">
    <rect
       style="fill:url(#linearGradient931)"
       id="rect921"
       y="28"
       x="-24.000004"
       width="108.00001"
       ry="1.390003"
       rx="1.43413"
       height="56" />
    <g
       style="fill-rule:evenodd"
       id="g927">
      <rect
         style="fill:url(#linearGradient933)"
         id="rect923"
         y="32"
         x="-20.000004"
         width="100.00001"
         rx="0.87840497"
         height="48" />
      <path
         sodipodi:nodetypes="ccccscc"
         inkscape:connector-curvature="0"
         style="fill:url(#linearGradient935)"
         id="path925"
         d="M 70.000002,31.999999 C 53.439443,44.155851 28.577214,53.06304 11.777344,70.675781 l 28.222655,9.32422 C 51.461282,64.912641 68.243027,57.914271 80.000002,46 V 33.412109 c 0,-0.486636 -0.393099,-0.850506 -0.878906,-0.878906 z" />
    </g>
  </g>
  <g
     transform="matrix(0.06614583,0,0,0.06614583,14.2875,9.2604168)"
     id="g945">
    <rect
       height="56"
       rx="1.43413"
       ry="1.390003"
       width="108.00001"
       x="-24.000004"
       y="28"
       id="rect937"
       style="fill:url(#linearGradient947)" />
    <g
       id="g943"
       style="fill-rule:evenodd">
      <rect
         height="48"
         rx="0.87840497"
         width="100.00001"
         x="-20.000004"
         y="32"
         id="rect939"
         style="fill:url(#linearGradient949)" />
      <path
         d="M 70.000002,31.999999 C 53.439443,44.155851 28.577214,53.06304 11.777344,70.675781 l 28.222655,9.32422 C 51.461282,64.912641 68.243027,57.914271 80.000002,46 V 33.412109 c 0,-0.486636 -0.393099,-0.850506 -0.878906,-0.878906 z"
         id="path941"
         style="fill:url(#linearGradient951)"
         inkscape:connector-curvature="0"
         sodipodi:nodetypes="ccccscc" />
    </g>
  </g>
  <path
     style="opacity:1;fill:url(#linearGradient968);fill-opacity:1.0;stroke:none;stroke-width:0.49999997;stroke-miterlimit:4;stroke-dasharray:none;stroke-opacity:1"
     d="M 44 29 L 44 35 L 28 35 L 27 35 L 27 42 L 28 42 L 28 36 L 61 36 L 61 42 L 62 42 L 62 36 L 62 35 L 61 35 L 45 35 L 45 29 L 44 29 z "
     transform="scale(0.26458333)"
     id="rect953" />
</svg>
